X: 1
T:The Hay (The Irish Hay)
M:C
L:1/8
S:Dallis Lute Book Trinity coll., Dublin MS410 (1583)
B:Sources of Irish traditional music, ed. A. Fleischmann,1998
N:bars 11 & 12 repeated in M
Z:p
K:C
GFEC|DFEC|GFED|DB,CG,|CDEC|FGEC|EFEC|CDEC|DE/F/ED/C/|GB,CG,|
A,B,CD|DB,CG,|
G2 EC|DFEC|
G2 EC|DB,CE|DFEC|DB,CE|DFEC|G,C, C2||
% Output from ABC2Win  Version 2.1 f on 11/07/2002
